X:1
T:Title
%%score { ( 1 3 4 ) | ( 2 5 ) }
L:1/8
Q:1/4=100
M:4/4
K:Bb
V:1 treble nm="Grand Piano"
V:3 treble 
V:4 treble 
V:2 bass 
V:5 bass 
V:1
 [DF]2 [EG]2 [DF]2 [EG]2 | [DF]>[DF] [FB]>c d4 | c>=B c>d e>A _B>c | [Fd]2 [DB]2 [DF]4 | %4
w: Arthur~W.~Nelson * * *||||
 [DF]2 [EG]2 [DF]2 [EG]2 | [DF]>[DF] [FB]>c d2 z2 | [Gc]2 [Gd]2 [Ge]>[Gd] [Gc]>[GB] | %7
w: |||
 [FA]2 [Ec]2 [DB]2 z2 | [Fd]6[K:bass][K:treble] z2 | [FA]2 [EG]2 [EG]2 z2 | %10
w: |||
 [=Ec]6[K:bass][K:treble] z2 | c2 A2 G2 F2 | [^Fd]6[K:bass][K:treble] z2 | [Gc]2 [GB]2 [FA]2 G2 | %14
w: ||||
 F2 B2 [CA]>[DB] [Ec]>[Fd] | [DB]4 [DB]2 z2 |] %16
w: ||
V:2
 [B,,B,]2 [B,,B,]2 [B,,B,]2 [B,,B,]2 | [B,,B,]>[B,,B,] [D,B,]>[K:treble][F,A,F] [B,F]4 | %2
 [F,A,F]>[F,_A,F] [F,=A,F]>[K:bass][F,B,F] [F,CF]>[F,EF] [F,DF]>[F,A,F] | %3
 [B,,B,]2 [B,,F,]2 [B,,B,]4 | [B,,B,]2 [B,,B,]2 [B,,B,]2 [B,,B,]2 | %5
 [B,,B,]>[B,,B,] [D,B,]>[K:treble][F,A,F] [B,F]2 z2 | [E,C]2 [D,=B,]2 [C,C]>[D,B,] [E,C]>[=E,C] | %7
 [F,C]2 [F,A,]2 [B,,B,]2 z2 | [B,,B,]2 D,>F, z z/ E/ [B,,B,]2 | [E,B,]2 [E,B,]2 [E,B,]2 z2 | %10
 [C,G,]2 =E,>G, z z/ =E/ z z/ E/ | [F,A,E]2 [F,CE]2 [F,B,E]2 [F,A,E]2 | %12
 [D,A,]2 ^F,>A, z z/ ^F/ z z/ C/ | [E,B,]2 [E,B,]2 [E,B,]2 [E,B,E]2 | %14
 [F,B,D]2 [F,D]2 [F,,F,]>[F,,F,] [F,,F,]>[F,,F,] | [B,,F,]4 [B,,F,]2 z2 |] %16
V:3
 x8 | x8 | x8 | x8 | x8 | x8 | x8 | x8 | z z/[K:bass] B,,/ B,2 z z/[K:treble] c/ [DB]>[FA] | x8 | %10
 z z/[K:bass] C,/ G,2[K:treble] z z/ B/ [=EA]>B | x8 | %12
 z z/[K:bass] D,/ A,2 z z/[K:treble] c/ [D^FB]>[FA] | x8 | x8 | x8 |] %16
V:4
 x8 | x8 | x8 | x8 | x8 | x8 | x8 | x8 | z4[K:bass] B,2[K:treble] z2 | x8 | %10
 z4[K:bass][K:treble] C2 z2 | x8 | z4[K:bass] A,2[K:treble] z2 | x8 | x8 | x8 |] %16
V:5
 x8 | x7/2[K:treble] x9/2 | x7/2[K:bass] x9/2 | x8 | x8 | x7/2[K:treble] x9/2 | x8 | x8 | %8
 z4 B,,2 z2 | x8 | z4 C,2 [C,C]2 | x8 | z4 D,2 D,2 | x8 | x8 | x8 |] %16

